!!!!SEGMENT: pl-sa--105-a-iii-5--002_de-majo-gian-francesco-pastorella-1ma-ave-maris-stella.krn
!!!id: 17xx:1366
!!!COM: De Majo, Gian Francesco
!!!OTL: Pastorella 1ma – Ave maris stella
!!!PDT:
!!!SMS-siglum: PL-SA
!!!SMS-shelfmark: 105/A III 5
!!!NIFC-rismID: 1001041387
!!!URL-scan: http://bc.bdsandomierz.pl/dlibra/publication/1461/edition/1429/content
!!!ONB-nifc: UWAGA: części: 1. Pastorella 1ma – In hoc natali gaudio, 2. Pastorella 1ma – Ave maris stella, 3. Pastorella Secunda – Colladeamus Christum regem
!!!SMS-variant:
!!!SMS-altvar:
**kern	**fba	**kern	**dynam	**kern	**dynam	**kern	**text
*part4	*	*part3	*part3	*part2	*part2	*part1	*part1
*	*	*group1	*	*group1	*	*	*
*staff4	*	*staff3	*	*staff2	*	*staff1	*staff1
*I"Fundamento.	*	*I"Flauto vel Violino Secundo.	*	*I"Flauto v Violino Primo .	*	*I"Basso Solo	*
*I'fund	*	*I'vl 2	*	*I'vl 1	*	*I'B	*
*clefF4	*	*clefG2	*	*clefG2	*	*clefF4	*
*k[]	*	*k[]	*	*k[]	*	*k[]	*
*M4/4	*	*M4/4	*	*M4/4	*	*M4/4	*
*met(c)	*	*met(c)	*	*met(c)	*	*met(c)	*
=1	=1	=1	=1	=1	=1	=1	=1
*	*	*	*	*^	*	*	*
!LO:TX:b:i:t=Ave Maris Stella &colon;	!	!	!	!	!	!	!	!
!LO:TX:a:i:t=Allegro	!	!LO:TX:b:i:t=Aria Ave Maris Stella	!	!LO:TX:a:i:t=Allegrò.	!	!	!LO:TX:a:t=17.	!
!LO:TX:a:i:t=Aria	!	!LO:TX:a:i:t=Allegrò.	!	!LO:TX:b:i:t=Aria . Ave Maris Stella	!	!	!LO:TX:b:i:t=Aria.	!
4C/	.	4gg\	.	4ccc 4ee 4g/	4g\	.	00r	.
4E\	6	8cc\L	.	8cc\L	4ryy	.	.	.
.	.	8ee\J	.	8ee\J	.	.	.	.
.	.	8qqee/	.	8qqee/	.	.	.	.
4F\	6	4dd\	.	4dd\	2ryy	.	.	.
4G\	.	8cc\L	.	8cc\L	.	.	.	.
.	.	8b\J	.	8b\J	.	.	.	.
*	*	*	*	*v	*v	*	*	*
=2	=2	=2	=2	=2	=2	=2	=2
8C/L	3_	16cc/LL	.	8cc\L	.	.	.
.	.	16g/	.	.	.	.	.
8GG/	.	16g/	.	8g\	.	.	.
.	.	16g/JJ	.	.	.	.	.
*	*	*tremolo	*	*	*	*	*
8C/	.	16g/LL	.	8cc\	.	.	.
.	.	16g/	.	.	.	.	.
8E/J	.	16g/	.	8ee\J	.	.	.
.	.	16g/JJ	.	.	.	.	.
8D/L	6_	16g/LL	.	8dd\L	.	.	.
.	.	16g/	.	.	.	.	.
8GG/	.	16g/	.	8g\	.	.	.
.	.	16g/JJ	.	.	.	.	.
8BB/	.	16g/LL	.	8dd\	.	.	.
.	.	16g/	.	.	.	.	.
8D/J	.	16g/	.	8ff\J	.	.	.
.	X	16g/JJ	.	.	.	.	.
*	*	*Xtremolo	*	*	*	*	*
=3	=3	=3	=3	=3	=3	=3	=3
4C/	.	8g/L	.	8ee\L	.	.	.
.	.	8g/J	.	8cc\	.	.	.
4c\	.	8cc\L	.	8ee\	.	.	.
.	.	8ee\J	.	8gg\J	.	.	.
.	.	8qqee/	.	8qqgg/	.	.	.
4F\	6	4dd\	.	4ff\	.	.	.
4G\	.	8cc\L	.	8ee\L	.	.	.
.	.	8b\J	.	8dd\J	.	.	.
=4	=4	=4	=4	=4	=4	=4	=4
8C/L	.	16cc/LL	.	8cc\L	.	.	.
.	.	16g/	.	.	.	.	.
8GG/	.	16g/	.	8g\	.	.	.
.	.	16g/JJ	.	.	.	.	.
*	*	*tremolo	*	*	*	*	*
8C/	.	16g/LL	.	8cc\	.	.	.
.	.	16g/	.	.	.	.	.
8E/J	.	16g/	.	8ee\J	.	.	.
.	.	16g/JJ	.	.	.	.	.
8D/L	6_	16g/LL	.	8dd\L	.	.	.
.	.	16g/	.	.	.	.	.
8GG/	.	16g/	.	8g\	.	.	.
.	.	16g/JJ	.	.	.	.	.
8BB/	.	16g/LL	.	8dd\	.	.	.
.	.	16g/	.	.	.	.	.
8D/J	.	16g/	.	8ff\J	.	.	.
.	X	16g/JJ	.	.	.	.	.
*	*	*Xtremolo	*	*	*	*	*
=5	=5	=5	=5	=5	=5	=5	=5
4C/	.	8g/L	.	8ee\L	.	00r	.
.	.	8g/J	.	8cc\	.	.	.
4c\	.	8cc\L	.	8ee\	.	.	.
.	.	8ee\J	.	8gg\J	.	.	.
.	.	8qqee/	.	8qqgg/	.	.	.
4F\	6	4dd\	.	4ff\	.	.	.
4G\	.	8cc\L	.	8ee\L	.	.	.
.	.	8b\J	.	8dd\J	.	.	.
=6	=6	=6	=6	=6	=6	=6	=6
!LO:TX:t=P:problem:mixed beam	!	!	!	!	!	!	!
8C/L	.	8cc\L	.	16ee\LL	.	.	.
.	.	.	.	16cc\	.	.	.
8c\	.	16dd\L	.	16dd\	.	.	.
.	.	16ee\JJ	.	16ee\JJ	.	.	.
8G\	.	16ff\LL	.	16ff\LL	.	.	.
.	.	16gg\	.	16gg\	.	.	.
8E\J	.	16aa\	.	16aa\	.	.	.
.	.	16bb\JJ	.	16bb\JJ	.	.	.
8C\L	.	4ccc\	.	4ccc\	.	.	.
8E\	.	.	.	.	.	.	.
8G\	.	8r	.	8r	.	.	.
8c\J	.	8cc\	.	8gg\	.	.	.
=7	=7	=7	=7	=7	=7	=7	=7
4F\	.	16cc\LL	.	8aa\L	.	.	.
.	.	16cc\	.	.	.	.	.
.	.	16cc\	.	8ccc\	.	.	.
.	.	16cc\JJ	.	.	.	.	.
*	*	*tremolo	*	*	*	*	*
4F\	.	16cc\LL	.	8ff\	.	.	.
.	.	16cc\	.	.	.	.	.
.	.	16cc\	.	8aa\J	.	.	.
.	.	16cc\JJ	.	.	.	.	.
4F\	.	16cc\LL	.	8cc\L	.	.	.
.	.	16cc\	.	.	.	.	.
.	.	16cc\	.	8ff\	.	.	.
.	.	16cc\JJ	.	.	.	.	.
4F\	.	16cc\LL	.	8a\	.	.	.
.	.	16cc\	.	.	.	.	.
.	.	16cc\	.	8cc\J	.	.	.
.	.	16cc\JJ	.	.	.	.	.
*	*	*Xtremolo	*	*	*	*	*
=8	=8	=8	=8	=8	=8	=8	=8
8r	.	16cc\LL	.	2.f/	.	.	.
.	.	16cc\	.	.	.	.	.
8F\L	.	16cc\	.	.	.	.	.
.	.	16cc\JJ	.	.	.	.	.
*	*	*tremolo	*	*	*	*	*
8A\	.	16cc\LL	.	.	.	.	.
.	.	16cc\	.	.	.	.	.
8c\J	.	16cc\	.	.	.	.	.
.	.	16cc\JJ	.	.	.	.	.
8A\L	.	16cc\LL	.	.	.	.	.
.	.	16cc\	.	.	.	.	.
8F\	.	16cc\	.	.	.	.	.
.	.	16cc\JJ	.	.	.	.	.
8A\	.	16cc\LL	.	4aa\	.	.	.
.	.	16cc\	.	.	.	.	.
8c\J	.	16cc\	.	.	.	.	.
.	.	16cc\JJ	.	.	.	.	.
*	*	*Xtremolo	*	*	*	*	*
!	!	!LO:SIC:v:t=custos cc	!	!	!	!	!
!	!	!LO:LB:g=original	!	!	!	!	!
=9	=9	=9	=9	=9	=9	=9	=9
4E\	6	16cc\LL	.	8gg\L	.	00r	.
.	.	16cc\	.	.	.	.	.
.	.	16cc\	.	8ccc\	.	.	.
.	.	16cc\JJ	.	.	.	.	.
*	*	*tremolo	*	*	*	*	*
4E\	.	16cc\LL	.	8ee\	.	.	.
.	.	16cc\	.	.	.	.	.
.	.	16cc\	.	8gg\J	.	.	.
.	.	16cc\JJ	.	.	.	.	.
4E\	.	16cc\LL	.	8cc\L	.	.	.
.	.	16cc\	.	.	.	.	.
.	.	16cc\	.	8ee\	.	.	.
.	.	16cc\JJ	.	.	.	.	.
4E\	.	16cc\LL	.	8g\	.	.	.
.	.	16cc\	.	.	.	.	.
.	.	16cc\	.	8cc\J	.	.	.
.	.	16cc\JJ	.	.	.	.	.
=10	=10	=10	=10	=10	=10	=10	=10
8r	.	16cc\LL	.	2.e/	.	.	.
.	.	16cc\	.	.	.	.	.
8C\L	.	16cc\	.	.	.	.	.
.	.	16cc\JJ	.	.	.	.	.
8E\	.	16cc\LL	.	.	.	.	.
.	.	16cc\	.	.	.	.	.
8G\J	.	16cc\	.	.	.	.	.
.	.	16cc\JJ	.	.	.	.	.
8E\L	.	16cc\LL	.	.	.	.	.
.	.	16cc\	.	.	.	.	.
8C\	.	16cc\	.	.	.	.	.
.	.	16cc\JJ	.	.	.	.	.
8E\	.	16cc\LL	.	4gg\	.	.	.
.	.	16cc\	.	.	.	.	.
8G\J	.	16cc\	.	.	.	.	.
.	.	16cc\JJ	.	.	.	.	.
!	!	!	!	!LO:SIC:v:t=custos ff	!	!	!
!	!	!	!	!LO:LB:g=original	!	!	!
=11	=11	=11	=11	=11	=11	=11	=11
*tremolo	*	*	*	*	*	*	*
!LO:TX:b:t=P:problem:linia falista	!	!	!	!	!	!	!
8D/L	6	16b/LL	.	8.ff\L	.	.	.
.	.	16b/	.	.	.	.	.
8D/	.	16b/	.	.	.	.	.
.	.	16b/JJ	.	16bb\K	.	.	.
8D/	.	16b/LL	.	8.ddd\	.	.	.
.	.	16b/	.	.	.	.	.
8D/J	.	16b/	.	.	.	.	.
.	.	16b/JJ	.	16ccc\Jk	.	.	.
*Xtremolo	*	*	*	*	*	*	*
!LO:SIC:v:t=custos GG	!	!	!	!	!	!	!
!LO:LB:g=original	!	!	!	!	!	!	!
8GG/L	7	16dd\LL	.	8.bb\L	.	.	.
.	.	16dd\	.	.	.	.	.
8GG/	.	16dd\	.	.	.	.	.
.	.	16dd\JJ	.	16aa\K	.	.	.
8GG/	.	16dd\LL	.	8.gg\	.	.	.
.	.	16dd\	.	.	.	.	.
!LO:TX:t=[segno]:problem:znak segno na kresce	!	!	!	!	!	!	!
8GG/J	.	16dd\	.	.	.	.	.
.	.	16dd\JJ	.	16ff\Jk	.	.	.
=12	=12	=12	=12	=12	=12	=12	=12
8C/L	.	16cc\LL	.	4ee\	.	.	.
.	.	16cc\	.	.	.	.	.
8C/	.	16cc\	.	.	.	.	.
.	.	16cc\JJ	.	.	.	.	.
8E/	6	16cc\LL	.	4ccc\	.	.	.
.	.	16cc\	.	.	.	.	.
8E/J	.	16cc\	.	.	.	.	.
.	.	16cc\JJ	.	.	.	.	.
.	.	.	.	16qqbb/	.	.	.
8F\L	.	16cc\LL	.	4aa\	.	.	.
.	.	16cc\	.	.	.	.	.
8F\	.	16cc\	.	.	.	.	.
.	.	16cc\JJ	.	.	.	.	.
.	.	.	.	16qqgg/	.	.	.
8A\	6	16cc\LL	.	4ff\	.	.	.
.	.	16cc\	.	.	.	.	.
8A\J	.	16cc\	.	.	.	.	.
.	.	16cc\JJ	.	.	.	.	.
=13	=13	=13	=13	=13	=13	=13	=13
*2\right	*	*	*	*	*	*	*
*tremolo	*	*	*	*	*	*	*
.	.	.	.	8qqff/	.	.	.
8G\L	6 4	16cc\LL	.	4.ee\	.	00r	.
.	.	16cc\	.	.	.	.	.
8G\	.	16cc\	.	.	.	.	.
.	.	16cc\JJ	.	.	.	.	.
8G\	.	16cc\LL	.	.	.	.	.
.	.	16cc\	.	.	.	.	.
8G\J	.	16cc\	.	16dd\LL	.	.	.
.	.	16cc\JJ	.	16cc\JJ	.	.	.
*	*	*	*	*2\right	*	*	*
8GG/L	3	16b/LL	.	2ddT\	.	.	.
.	.	16b/	.	.	.	.	.
8GG/	.	16b/	.	.	.	.	.
.	.	16b/JJ	.	.	.	.	.
8GG/	.	16b/LL	.	.	.	.	.
.	.	16b/	.	.	.	.	.
8GG/J	.	16b/	.	.	.	.	.
.	.	16b/JJ	.	.	.	.	.
*Xtremolo	*	*	*	*	*	*	*
=14	=14	=14	=14	=14	=14	=14	=14
8C\L	.	16cc\LL	.	4ee\	.	.	.
.	.	16cc\	.	.	.	.	.
8C\	.	16cc\	.	.	.	.	.
.	.	16cc\JJ	.	.	.	.	.
8E\	6	16cc\LL	.	4ccc\	.	.	.
.	.	16cc\	.	.	.	.	.
8E\J	.	16cc\	.	.	.	.	.
.	.	16cc\JJ	.	.	.	.	.
.	.	.	.	16qqbb/	.	.	.
8F\L	.	16cc\LL	.	4aa\	.	.	.
.	.	16cc\	.	.	.	.	.
8F\	6	16cc\	.	.	.	.	.
.	.	16cc\JJ	.	.	.	.	.
.	.	.	.	16qqgg/	.	.	.
8A\	.	16cc\LL	.	4ff\	.	.	.
.	.	16cc\	.	.	.	.	.
8A\J	.	16cc\	.	.	.	.	.
.	.	16cc\JJ	.	.	.	.	.
=15	=15	=15	=15	=15	=15	=15	=15
*tremolo	*	*	*	*	*	*	*
.	.	.	.	8qqff/	.	.	.
8G\L	6 4	16cc\LL	.	4.ee\	.	.	.
.	.	16cc\	.	.	.	.	.
8G\	.	16cc\	.	.	.	.	.
.	.	16cc\JJ	.	.	.	.	.
8G\	.	16cc\LL	.	.	.	.	.
.	.	16cc\	.	.	.	.	.
8G\J	.	16cc\	.	16dd\LL	.	.	.
.	.	16cc\JJ	.	16cc\JJ	.	.	.
8GG/L	5 3	16cc\LL	.	2ddT\	.	.	.
.	.	16cc\	.	.	.	.	.
8GG/	.	16cc\	.	.	.	.	.
.	.	16cc\JJ	.	.	.	.	.
8GG/	.	16b/LL	.	.	.	.	.
.	.	16b/	.	.	.	.	.
8GG/J	.	16b/	.	.	.	.	.
.	.	16b/JJ	.	.	.	.	.
*Xtremolo	*	*Xtremolo	*	*	*	*	*
=16	=16	=16	=16	=16	=16	=16	=16
*	*	*	*below	*	*	*	*
!	!	!LO:TX:t=P:problem:mixed beam	!LO:DY:t=f&colon;	!LO:TX:t=P:problem:mixed beam	!	!	!
8CC/L	3_	8cc\L	f	8cc\L	.	.	.
8C/	.	8c/	.	8c/	.	.	.
8E/	.	8e/	.	8e/	.	.	.
8G/J	X	8g/J	.	8g/J	.	.	.
8E\L	.	8cc\L	.	8cc\L	.	.	.
8C\	.	8ee\	.	8ee\	.	.	.
8E\	.	8gg\	.	8gg\	.	.	.
8G\J	.	8ccc\J	.	8ccc\J	.	.	.
=17	=17	=17	=17	=17	=17	=17	=17
4C/	.	4cc 4e 4G/	.	4cc 4e 4G/	.	1r	.
4C/	.	4cc 4e 4G/	.	4cc 4e 4G/	.	.	.
4C/	.	4cc 4e 4G/	.	4cc 4e 4G/	.	.	.
!LO:TX:b:t=finis	!	!	!	!	!	!	!
4r;;	.	4r	.	4r	.	.	.
=18	=18	=18	=18	=18	=18	=18	=18
*	*	*	*	*	*below	*	*
!	!	!	!LO:DY:t=pia.	!	!	!	!
4C/	.	4gg\	p	4gg\	p	4G\	A-
4E\	6	8cc\L	.	8cc\L	.	8C/L	-ve
.	.	8ee\J	.	8ee\J	.	8E/J	.
.	.	8qqee/	.	8qqee/	.	8qqE/	.
4F\	6	4dd\	.	4dd\	.	4D/	Ma-
4G\	.	8cc\L	.	8cc\L	.	8C/L	-ris
.	.	8b\J	.	8b\J	.	8BB/J	.
=19	=19	=19	=19	=19	=19	=19	=19
!	!	!	!	!	!LO:DY:rj:t=for.	!	!
8C/L	3_	16cc/LL	.	8cc\L	f	8C/L	Stel-
.	.	16g/	.	.	.	.	.
8GG/	.	16g/	.	8g\	.	8GG/J	.
.	.	16g/JJ	.	.	.	.	.
*	*	*tremolo	*	*	*	*	*
8C/	.	16g/LL	.	8cc\	.	4GG/	-la
.	.	16g/	.	.	.	.	.
8E/J	.	16g/	.	8ee\J	.	.	.
.	.	16g/JJ	.	.	.	.	.
8D/L	6_	16g/LL	.	8dd\L	.	2r	.
.	.	16g/	.	.	.	.	.
8GG/	.	16g/	.	8g\	.	.	.
.	.	16g/JJ	.	.	.	.	.
8BB/	.	16g/LL	.	8dd\	.	.	.
.	.	16g/	.	.	.	.	.
8D/J	.	16g/	.	8ff\J	.	.	.
.	X	16g/JJ	.	.	.	.	.
*	*	*Xtremolo	*	*	*	*	*
=20	=20	=20	=20	=20	=20	=20	=20
!	!	!LO:TX:t=P:problem:takty 20-21 zapisane repetycją, adnotacja "bis."	!LO:DY:t=pia.	!	!	!	!
4C/	.	4gg\yy	p	8ee\L	.	(8E\L	De-
!	!	!	!	!	!LO:DY:t=pia.	!	!
.	.	.	.	8cc\	p	8C\J)	.
4E\	6	8cc\Lyy	.	8ee\	.	(8E\L	-i
.	.	8ee\Jyy	.	8gg\J	.	8G\J)	.
.	.	8qqee/yy	.	8qqgg/	.	8qqG/	.
4F\	6	4dd\yy	.	4ff\	.	4F/	Ma-
4G\	.	8cc\Lyy	.	8ee\L	.	8E/L	-ter
.	.	8b\Jyy	.	8dd\J	.	8D/J	.
=21	=21	=21	=21	=21	=21	=21	=21
!	!	!	!	!LO:TX:t=P:problem:takty 21-22 zapisane repetycją, adnotacja "bis."	!LO:DY:rj:t=for.	!	!
8C/L	.	16cc/LLyy	.	8cc\Lyy	f	8C/L	al-
.	.	16g/yy	.	.	.	.	.
8GG/	.	16g/yy	.	8g\yy	.	8BB/J	.
.	.	16g/JJyy	.	.	.	.	.
*	*	*tremolo	*	*	*	*	*
8C/	.	16g/yyLL	.	8cc\yy	.	4C/	-ma
.	.	16g/yy	.	.	.	.	.
8E/J	.	16g/yy	.	8ee\Jyy	.	.	.
.	.	16g/yyJJ	.	.	.	.	.
8D/L	6	16g/yyLL	.	8dd\Lyy	.	2r	.
.	.	16g/yy	.	.	.	.	.
8GG/	.	16g/yy	.	8g\yy	.	.	.
.	.	16g/yyJJ	.	.	.	.	.
8BB/	.	16g/yyLL	.	8dd\yy	.	.	.
.	.	16g/yy	.	.	.	.	.
8D/J	.	16g/yy	.	8ff\Jyy	.	.	.
.	.	16g/yyJJ	.	.	.	.	.
*	*	*Xtremolo	*	*	*	*	*
!LO:SIC:v:t=custos C	!	!	!	!	!	!	!
!LO:LB:g=original	!	!LO:LB:g=original	!	!	!	!	!
=22	=22	=22	=22	=22	=22	=22	=22
4C/	.	8g/L	.	8ee\Lyy	.	8E\L	at-
!	!	!	!	!	!LO:DY:t=pia.	!	!
.	.	8g/J	.	8cc\yy	p	8C\J	.
4E\	6	8cc\L	.	8ee\yy	.	8E\L	-que
.	.	8ee\J	.	8gg\Jyy	.	8G\J	.
.	.	8qqee/	.	8qqgg/yy	.	8qqG/	.
4F\	6	4dd\	.	4ff\yy	.	4F\	Sem-
4G\	.	8cc\L	.	8ee\Lyy	.	8E\L	-per
.	.	8b\J	.	8dd\Jyy	.	8D\J	.
!	!	!	!	!LO:LB:g=original	!	!	!
=23	=23	=23	=23	=23	=23	=23	=23
!LO:TX:t=P:problem:mixed beam	!	!LO:TX:t=P:problem:mixed beam	!LO:DY:t=f&colon;	!LO:TX:t=P:problem:mixed beam	!	!	!
8c\L	.	8cc\L	f	8cc\L	.	8C/L	Vir-
8C/	.	8c/	.	8c/	.	8BB/J	.
8E/	.	8e/	.	8e/	.	4C/	-go
8G/J	.	8g/J	.	8g/J	.	.	.
8E\L	.	8cc\L	.	8cc\L	.	2r	.
8C\	.	8ee\	.	8ee\	.	.	.
8E\	.	8gg\	.	8gg\	.	.	.
8G\J	.	8ccc\J	.	8ccc\J	.	.	.
=24	=24	=24	=24	=24	=24	=24	=24
!LO:TX:t=P:problem:mixed beam	!	!	!	!	!	!LO:TX:a:t=1.	!
8C/L	.	4cc 4e 4G/	.	4cc 4e 4G/	.	1r	.
8c\	.	.	.	.	.	.	.
8G\	.	4cc 4e 4G/	.	4cc 4e 4G/	.	.	.
8E\J	.	.	.	.	.	.	.
4C/	.	4cc 4e 4G/	.	4cc 4e 4G/	.	.	.
4r	.	4r	.	4r	.	.	.
=25	=25	=25	=25	=25	=25	=25	=25
8G\L	.	16dd\LL	p	16bb\LL	.	4G\	at-
.	.	16dd\	.	16bb\	.	.	.
8G\	.	16dd\	.	16bb\	.	.	.
.	.	16dd\JJ	.	16bb\JJ	.	.	.
*	*	*tremolo	*	*tremolo	*	*	*
8G\	.	16dd\LL	.	16bb\LL	.	4D/	-que
.	.	16dd\	.	16bb\	.	.	.
8G\J	.	16dd\	.	16bb\	.	.	.
.	.	16dd\JJ	.	16bb\JJ	.	.	.
*tremolo	*	*	*	*	*	*	*
8G\L	.	16dd\LL	.	16bb\LL	.	8D/L	Sem-
.	.	16dd\	.	16bb\	.	.	.
8G\	.	16dd\	.	16bb\	.	8BB/J	.
.	.	16dd\JJ	.	16bb\JJ	.	.	.
8G\	.	16dd\LL	.	16bb\LL	.	8E/L	-per
.	.	16dd\	.	16bb\	.	.	.
8G\J	.	16dd\	.	16bb\	.	8D/J	.
.	.	16dd\JJ	.	16bb\JJ	.	.	.
!	!	!	!	!	!	!LO:SIC:v:t=przednutka 16 D i custos C	!
!	!	!	!	!	!	!LO:LB:g=original	!
=26	=26	=26	=26	=26	=26	=26	=26
.	.	.	.	.	.	16qqD/	.
8G\L	4_ 2	16cc\LL	.	16aa\LL	.	8C/L	Vir-
.	.	16cc\	.	16aa\	.	.	.
8G\	.	16cc\	.	16aa\	.	8BB/J	.
.	.	16cc\JJ	.	16aa\JJ	.	.	.
8G\	.	16cc\LL	.	16aa\LL	.	4C/	-go
.	.	16cc\	.	16aa\	.	.	.
8G\J	.	16cc\	.	16aa\	.	.	.
.	.	16cc\JJ	.	16aa\JJ	.	.	.
8G\L	.	16cc\LL	.	16aa\LL	.	2r	.
.	.	16cc\	.	16aa\	.	.	.
8G\	.	16cc\	.	16aa\	.	.	.
.	.	16cc\JJ	.	16aa\JJ	.	.	.
8G\	.	16cc\LL	.	16aa\LL	.	.	.
.	.	16cc\	.	16aa\	.	.	.
8G\J	.	16cc\	.	16aa\	.	.	.
.	.	16cc\JJ	.	16aa\JJ	.	.	.
=27	=27	=27	=27	=27	=27	=27	=27
8F#X\L	5	16cc\LL	.	16aa\LL	.	4.A\	fe-
.	.	16cc\	.	16aa\	.	.	.
8F#X\	.	16cc\	.	16aa\	.	.	.
.	.	16cc\JJ	.	16aa\JJ	.	.	.
8F#X\	.	16cc\LL	.	16aa\LL	.	.	.
.	.	16cc\	.	16aa\	.	.	.
8F#X\J	.	16cc\	.	16aa\	.	8C/	-lix
.	.	16cc\JJ	.	16aa\JJ	.	.	.
8F#\L	.	16cc\LL	.	16aa\LL	.	(8C/L	coe-
.	.	16cc\	.	16aa\	.	.	.
8F#\	.	16cc\	.	16aa\	.	8BB/J)	.
.	.	16cc\JJ	.	16aa\JJ	.	.	.
8F#\	.	16cc\LL	.	16aa\LL	.	(8D/L	-li
.	.	16cc\	.	16aa\	.	.	.
8F#\J	.	16cc\	.	16aa\	.	8C/J)	.
.	.	16cc\JJ	.	16aa\JJ	.	.	.
=28	=28	=28	=28	=28	=28	=28	=28
.	.	.	.	.	.	16qqC/	.
8G\L	.	16b\LL	.	16gg\LL	.	8BB/L	por-
.	.	16b\	.	16gg\	.	.	.
8G\	.	16b\	.	16gg\	.	8AA/J	.
.	.	16b\JJ	.	16gg\JJ	.	.	.
.	.	.	.	.	.	8qqAA/	.
8G\	.	16b\LL	.	16dd\LL	.	4BB/	-ta
.	.	16b\	.	16dd\	.	.	.
8G\J	.	16b\	.	16dd\	.	.	.
.	.	16b\JJ	.	16dd\JJ	.	.	.
8E\L	5	16cc#X\LL	.	16gg\LL	.	4GG/	a-
.	.	16cc#X\	.	16gg\	.	.	.
8E\	.	16cc#X\	.	16gg\	.	.	.
.	.	16cc#X\JJ	.	16gg\JJ	.	.	.
8E\	.	16cc#\LL	.	16gg\LL	.	4G\	-ve
.	.	16cc#\	.	16gg\	.	.	.
8E\J	.	16cc#\	.	16gg\	.	.	.
.	.	16cc#\JJ	.	16gg\JJ	.	.	.
*Xtremolo	*	*Xtremolo	*	*Xtremolo	*	*	*
=29	=29	=29	=29	=29	=29	=29	=29
!	!	!	!	!LO:TX:a:t=|:problem	!	!	!
8D/L	#	8dd\L	.	8ff#X\L	.	8F#X\L	a-
8BB/	6	8dd\	.	(8dd\	.	8D\J	.
8C/	.	8ccn\	.	8cc\	.	8C\L	-ve
8AA/J	.	8ee\J	.	8ee\J)	.	8E\J	.
!	!	!	!	!LO:TX:a:t=|:problem	!	!	!
8BB/L	6	8dd\L	.	8dd\L	.	8D/L	ma-
8GG/	.	8b\	.	(8b\	.	8BB/J	.
8AA/	6\	8a\	.	8a\	.	8AA/L	-ris
8FF#X/J	.	8cc\J	.	8cc\J)	.	8C/J	.
=30	=30	=30	=30	=30	=30	=30	=30
!LO:TX:t=P:problem:mixed beam	!	!	!	!	!	!	!
8GG/L	3_	8b\L	.	8b/L	.	8BB/L	Stel-
!	!	!	!	!LO:TX:b:t=|:problem	!	!	!
8G\	.	8g\	.	8g/	.	8C/J	.
!	!	!	!	!LO:TX:b:t=|:problem	!	!	!
8B\	.	8b\	.	8b/	.	4D/	-la
!	!	!	!	!LO:TX:b:t=|:problem	!	!	!
8d\J	.	8dd\J	.	8dd/J	.	.	.
8B\L	.	8b\L	.	8b/L	.	4r	.
8G\	.	8g\	.	8g/	.	.	.
8B\	X	8b\	.	8b/	.	8D/	De-
8d\J	.	8dd\J	.	8dd/J	.	8D/	-i
=31	=31	=31	=31	=31	=31	=31	=31
4c\	.	8cc\L	.	8ee\L	.	8E\L	Ma-
.	.	8ee\	.	8gg\	.	8G\J	.
4C/	.	8dd\	.	8ff#X\	.	8F#X\L	-ter
.	.	8cc\J	.	8ee\J	.	8E\J	.
4D/	6 4	8b/L	.	8dd\L	.	8D/L	al-
.	.	8a/	.	8cc\	.	8C/J	.
4DD/	5 #	8g/	.	8b\	.	8BB/L	.
.	.	8f#X/J	.	8a\J	.	8AA/J	.
!	!	!LO:SIC:v:t=custos gg	!	!LO:SIC:v:t=custos g	!	!	!
!	!	!LO:LB:g=original	!	!LO:LB:g=original	!	!	!
=32	=32	=32	=32	=32	=32	=32	=32
!	!	!LO:TX:t=P:problem:brak 7 taktów	!	!	!	!	!
8G\L	.	1ryy	.	8g/L	.	4GG/	-ma
8D\	.	.	.	8d/	.	.	.
8G\	.	.	.	8g/	.	4r	.
8B\J	.	.	.	8b/J	.	.	.
8A\L	6\_	.	.	8a/L	.	8A\L	at-
8D\	.	.	.	8d/	.	8F#X\J	.
!LO:SIC:v:s=8F#	!	!	!	!	!	!	!
8F\	.	.	.	8a/	.	8D/L	-que
8A\J	X	.	.	8cc/J	.	8C/J	.
!LO:SIC:v:t=custos G	!	!	!	!	!	!	!
!LO:LB:g=original	!	!	!	!	!	!	!
=33	=33	=33	=33	=33	=33	=33	=33
8G\L	.	1ryy	.	8g/L	.	8BB/L	Sem-
8D\	.	.	.	8d/	.	8C/J	.
8G\	.	.	.	8g/	.	4D/	-per
8B\J	.	.	.	8b/J	.	.	.
!	!	!	!	!	!	!LO:SIC:v:t=custos A	!
!	!	!	!	!	!	!LO:LB:g=original	!
8A\L	6\	.	.	8a/L	.	8A\L	Sem-
8D\	.	.	.	8d/	.	8F#X\J	.
8F#X\	.	.	.	8a/	.	8D/L	-per
8A\J	.	.	.	8cc/J	.	8C/J	.
=34	=34	=34	=34	=34	=34	=34	=34
8G\L	.	1ryy	.	8b/L	.	8BB/L	vir-
8D\	.	.	.	8d/	.	8C/J	.
8G\	.	.	.	8g/	.	4D/	-go
8B\J	.	.	.	8b/J	.	.	.
8A\L	6\	.	.	8a/L	.	8A\L	sem-
8D\	.	.	.	8d/	.	8F#X\J	.
8F#X\	.	.	.	8a/	.	8D/L	-per
8A\J	.	.	.	8cc/J	.	8C/J	.
=35	=35	=35	=35	=35	=35	=35	=35
!LO:TX:t=P:problem:mixed beam	!	!	!	!	!	!	!
8GG/L	.	1ryy	.	4gg 4b 4d/	.	8BB/L	vir-
8G\	.	.	.	.	.	8AA/J	.
8D\	.	.	.	4gg 4b 4d/	.	4GG/	-go
8BB\J	.	.	.	.	.	.	.
4GG/	.	.	.	4gg 4b 4d/	.	4r	.
4r	.	.	.	8gg\L	.	8G\	fe-
.	.	.	.	8gg\J	.	8G\	-lix
=36	=36	=36	=36	=36	=36	=36	=36
!	!	!	!	!LO:TX:a:t=|:problem	!	!	!
8d\L	#	1ryy	.	8ff#X\L	.	8F#X\L	coe-
8B\	6	.	.	(8dd\	.	8D\J	.
8c\	.	.	.	8cc\	.	8C\L	-li
8A\J	.	.	.	8ee\J)	.	8E\J	.
!	!	!	!	!LO:TX:a:t=|:problem	!	!	!
8B\L	6	.	.	8dd\L	.	8D/L	por-
8G\	.	.	.	(8b\	.	8BB/J	.
8A\	6\	.	.	8a\	.	8AA/L	.
8F#X\J	.	.	.	8cc\J)	.	8C/J	.
=37	=37	=37	=37	=37	=37	=37	=37
!LO:TX:t=P:problem:mixed beam	!	!	!	!	!	!	!
8GG/L	.	1ryy	.	8b/L	f	8.BB/L	.
8G\	.	.	.	8g/	.	.	.
.	.	.	.	.	.	16C/Jk	.
8B\	.	.	.	8b/	.	4D/	-ta
8d\J	.	.	.	8dd/J	.	.	.
8B\L	.	.	.	8b/L	.	4r	.
8G\	.	.	.	8g/	.	.	.
8B\	.	.	.	8b/	.	8D/	fe-
8d\J	.	.	.	8dd/J	.	8D/	-lix
=38	=38	=38	=38	=38	=38	=38	=38
4c\	.	1ryy	.	8ee\L	p	8E\L	coe-
.	.	.	.	8gg\	.	8G\J	.
4C/	.	.	.	8ff#X\	.	8F#X\L	-li
.	.	.	.	8ee\J	.	8E\J	.
4D/	6 4	.	.	8dd\L	.	8D/L	por-
.	5 #	.	.	8cc\	.	8C/J	.
4DD/	.	.	.	8b\	.	8BB/L	.
.	.	.	.	8a\J	.	8AA/J	.
=39	=39	=39	=39	=39	=39	=39	=39
.	.	.	.	8qqccc/	f	.	.
4GG/	.	16gg\LL	.	8bb\L	.	4B\	.
.	.	16gg\	.	.	.	.	.
.	.	16gg\	.	16aa\L	.	.	.
.	.	16gg\JJ	.	16bb\JJ	.	.	.
.	.	.	.	16qqaa/	.	.	.
*	*	*tremolo	*	*	*	*	*
4BB/	6	16gg\LL	.	8gg\L	.	4G\	.
.	.	16gg\	.	.	.	.	.
.	.	16gg\	.	16ff#X\L	.	.	.
.	.	16gg\JJ	.	16gg\JJ	.	.	.
.	.	.	.	16qqff#/	.	.	.
4C/	6	16gg\LL	.	8ee\L	.	4E\	.
.	.	16gg\	.	.	.	.	.
.	.	16gg\	.	16dd\L	.	.	.
.	.	16gg\JJ	.	16ee\JJ	.	.	.
.	.	.	.	16qqdd/	.	.	.
4D/	7 #	16gg\LL	.	8cc\L	.	8D/L	.
.	.	16gg\	.	.	.	.	.
.	.	16gg\	.	16b\L	.	8C/J	.
.	.	16gg\JJ	.	16cc\JJ	.	.	.
!	!	!	!	!LO:LB:g=original	!	!	!
=40	=40	=40	=40	=40	=40	=40	=40
8D/L	6 4	16g/LL	.	16b/LL	.	2BB/	.
.	.	16g/	.	16b/	.	.	.
8D/	.	16g/	.	16b/	.	.	.
.	.	16g/JJ	.	16b/JJ	.	.	.
*	*	*	*	*tremolo	*	*	*
8D/	.	16g/LL	.	16b/LL	.	.	.
.	.	16g/	.	16b/	.	.	.
8D/J	.	16g/	.	16b/	.	.	.
.	.	16g/JJ	.	16b/JJ	.	.	.
*tremolo	*	*	*	*	*	*	*
8DD/L	5 #	16f#X/LL	.	16a/LL	.	2AA/	-ta
.	.	16f#X/	.	16a/	.	.	.
8DD/	.	16f#X/	.	16a/	.	.	.
.	.	16f#X/JJ	.	16a/JJ	.	.	.
8DD/	.	16f#/LL	.	16a/LL	.	.	.
.	.	16f#/	.	16a/	.	.	.
8DD/J	.	16f#/	.	16a/	.	.	.
.	.	16f#/JJ	.	16a/JJ	.	.	.
*Xtremolo	*	*	*	*	*	*	*
!	!	!	!	!	!	!LO:SIC:v:t=custos B	!
!	!	!	!	!	!	!LO:LB:g=original	!
=41	=41	=41	=41	=41	=41	=41	=41
8GG/L	.	16gg\LL	.	16bb\LL	.	4B\	fe-
.	.	16gg\	.	16bb\	.	.	.
8GG/	.	16gg\	.	16bb\	.	.	.
.	.	16gg\JJ	.	16bb\JJ	.	.	.
.	.	.	.	.	.	8qqA/	.
8BB/	6	16gg\LL	.	16gg\LL	.	4G\	-lix
.	.	16gg\	.	16gg\	.	.	.
8BB/J	.	16gg\	.	16gg\	.	.	.
.	.	16gg\JJ	.	16gg\JJ	.	.	.
.	.	.	.	.	.	8qqF#X/	.
8C/L	.	16gg\LL	.	16ee\LL	.	4E\	coe-
.	.	16gg\	.	16ee\	.	.	.
8C/	.	16gg\	.	16ee\	.	.	.
.	.	16gg\JJ	.	16ee\JJ	.	.	.
8E/	6	16gg\LL	.	16ccc\LL	.	8D/L	-li
.	.	16gg\	.	16ccc\	.	.	.
8E/J	.	16gg\	.	16ccc\	.	8C/J	.
.	.	16gg\JJ	.	16ccc\JJ	.	.	.
=42	=42	=42	=42	=42	=42	=42	=42
8D/L	6 4	16gg\LL	.	16bb\LL	.	(2BB/	por-
.	.	16gg\	.	16bb\	.	.	.
8D/	.	16gg\	.	16bb\	.	.	.
.	.	16gg\JJ	.	16bb\JJ	.	.	.
8D/	.	16gg\LL	.	16bb\LL	.	.	.
.	.	16gg\	.	16bb\	.	.	.
8D/J	.	16gg\	.	16bb\	.	.	.
.	.	16gg\JJ	.	16bb\JJ	.	.	.
*tremolo	*	*	*	*	*	*	*
8DD/L	5 #	16ff#X\LL	.	16aa 16ee\LL	.	2AAT/)	.
.	.	16ff#X\	.	16aa 16ee\	.	.	.
8DD/	.	16ff#X\	.	16aa 16ee\	.	.	.
.	.	16ff#X\JJ	.	16aa 16ee\JJ	.	.	.
8DD/	.	16ff#\LL	.	16aa\LL	.	.	.
.	.	16ff#\	.	16aa\	.	.	.
8DD/J	.	16ff#\	.	16aa\	.	.	.
.	.	16ff#\JJ	.	16aa\JJ	.	.	.
*Xtremolo	*	*Xtremolo	*	*Xtremolo	*	*	*
!LO:SIC:v:t=custos GG	!	!	!	!	!	!	!
!LO:LB:g=original	!	!	!	!	!	!	!
=43	=43	=43	=43	=43	=43	=43	=43
!LO:TX:t=P:problem:mixed beam	!	!LO:TX:t=P:problem:mixed beam	!LO:DY:t=for&colon;	!LO:TX:t=P:problem:mixed beam	!	!	!
8GG/L	.	8gg\L	f	8gg\L	.	4GG/	-ta
8G\	.	8g/	.	8g/	.	.	.
8B\	.	8b/	.	8b/	.	4r	.
8d\J	.	8dd/J	.	8dd/J	.	.	.
!	!	!	!	!LO:TX:t=P:problem:mixed beam	!	!	!
8B\L	.	8b/L	.	8gg\L	.	2r	.
8G\	.	8g/	.	8g/	.	.	.
8B\	.	8b/	.	8b/	.	.	.
8d\J	.	8dd/J	.	8dd/J	.	.	.
=44	=44	=44	=44	=44	=44	=44	=44
*	*	*^	*	*^	*	*	*
!	!	!	!	!	!	!	!	!LO:TX:a:t=3.	!
4G\	.	4gg\	2ryy	.	4gg\	2ryy	.	0r	.
4BB/	6	4gg 4b 4d/	.	.	4gg 4b 4d/	.	.	.	.
4C/	.	4ee 4cc/	4g\	.	4ee 4cc/	4g\	.	.	.
4D/	7 #	4ff#X 4a 4d/	4ryy	.	4ff#X 4a 4d/	4ryy	.	.	.
*	*	*v	*v	*	*	*	*	*	*
*	*	*	*	*v	*v	*	*	*
=45	=45	=45	=45	=45	=45	=45	=45
!	!	!LO:TX:t=P:problem:mixed beam	!LO:DY:t=for&colon;	!LO:TX:t=P:problem:takty 45-46 zapisane repetycją, adnotacja "bis"	!	!	!
!LO:TX:t=P:problem:mixed beam	!	!LO:TX:t=P:problem:takty 38-39 zapisane repetycją, adnotacja "bis"	!	!LO:TX:t=P:problem:mixed beam	!	!	!
8GG/L	.	8gg\Lyy	f	8gg\Lyy	.	.	.
8G\	.	8g/yy	.	8g/yy	.	.	.
8B\	.	8b/yy	.	8b/yy	.	.	.
8d\J	.	8dd/Jyy	.	8dd/Jyy	.	.	.
!	!	!	!	!LO:TX:t=P:problem:mixed beam	!	!	!
8B\L	.	8b/Lyy	.	8gg\Lyy	.	.	.
8G\	.	8g/yy	.	8g/yy	.	.	.
8B\	.	8b/yy	.	8b/yy	.	.	.
8d\J	.	8dd/Jyy	.	8dd\Jyy	.	.	.
=46	=46	=46	=46	=46	=46	=46	=46
*	*	*^	*	*^	*	*	*
4G\	.	4gg\yy	2ryy	.	4gg\yy	2ryy	.	1r	.
4BB/	6	4ggyy 4byy 4d/yy	.	.	4ggyy 4byy 4d/yy	.	.	.	.
4C/	.	4eeyy 4cc/yy	4g/yy	.	4eeyy 4cc/yy	4g/yy	.	.	.
4D/	#	4ff#yyX 4ayy 4d/yy	4ryy	.	4ff#Xyy 4ayy 4d/yy	4ryy	.	.	.
*	*	*v	*v	*	*	*	*	*	*
*	*	*	*	*v	*v	*	*	*
=47	=47	=47	=47	=47	=47	=47	=47
!LO:TX:t=P:problem:mixed beam	!	!	!	!	!	!	!
8GG/L	.	4gg 4b 4d/	.	4gg 4b 4d/	.	2r	.
8G\	.	.	.	.	.	.	.
8G\	.	4r	.	4r	.	.	.
8G\J	.	.	.	.	.	.	.
*tremolo	*	*	*	*	*	*	*
8G\L	.	4r	p	4r	.	4G\	A-
8G\	.	.	.	.	p	.	.
.	.	.	.	.	.	16qqF/	.
8G\	.	4b/	.	4gg\	.	4E\	-ve
8G\J	.	.	.	.	.	.	.
*Xtremolo	*	*	*	*	*	*	*
=48	=48	=48	=48	=48	=48	=48	=48
.	.	.	.	.	.	16qqD/	.
8G\L	+4r 2	4ee\	.	(4cc#X\	.	4C#X/	Ma-
8G\	.	.	.	.	.	.	.
8Fn\	6	4a/	.	4dd\)	.	2D/	.
8F\J	.	.	.	.	.	.	.
*tremolo	*	*	*	*	*	*	*
8F\L	.	4r	.	4r	.	.	.
8F\	.	.	.	.	.	.	.
8F\	.	4dd\	.	4ffn\	.	8F\L	-ris
8F\J	.	.	.	.	.	8D\J	.
*Xtremolo	*	*	*	*	*	*	*
=49	=49	=49	=49	=49	=49	=49	=49
.	.	.	.	.	.	4qqCn/	.
8F\L	4 2	4d/	.	(4b\	.	4BB/	Stel-
8F\	.	.	.	.	.	.	.
!	!	!	!	!LO:SIC:v:s=4cc	!	!	!
8E\	6	4g/	.	4cc#X\)	.	4Cn/	-la
8E\J	.	.	.	.	.	.	.
*tremolo	*	*	*	*	*	*	*
8E\L	.	4r	.	4r	.	4r	.
8E\	.	.	.	.	.	.	.
!	!	!	!	!LO:SIC:v:s=4cc	!	!	!
8E\	.	4cc\	.	4cc#\	.	8C/	De-
8E\J	.	.	.	.	.	8C/	-i
=50	=50	=50	=50	=50	=50	=50	=50
8F\L	.	16aa\LL	.	16aa\LL	.	8A\L	Ma-
.	.	16aa\	.	16aa\	.	.	.
8F\	.	16gg\	.	16gg\	.	8G\J	.
.	.	16gg\JJ	.	16gg\JJ	.	.	.
8F\	.	16ffn\LL	.	16ff\LL	.	8Fn\L	-ter
.	.	16ff\	.	16ff\	.	.	.
8F\J	.	16ee\	.	16ee\	.	8E\J	.
.	.	16ee\JJ	.	16ee\JJ	.	.	.
!	!	!LO:SIC:v:t=custos dd	!	!	!	!	!
!	!	!LO:LB:g=original	!	!	!	!	!
8F\L	.	16dd\LL	.	16dd\LL	.	8D/L	al-
.	.	16dd\	.	16dd\	.	.	.
8F\	.	16cc\	.	16cc\	.	8C/J	.
.	.	16cc\JJ	.	16cc\JJ	.	.	.
8F\	.	16b/LL	.	16b/LL	.	8BB/L	.
.	.	16b/	.	16b/	.	.	.
8F\J	.	16a/	.	16a/	.	8AA/J	.
!	!	!	!	!LO:TX:b:i:t=Citiſsime Verte &colon;	!	!	!
.	.	16a/JJ	.	16a/JJ	.	.	.
!	!	!	!	!LO:PB:g=original	!	!	!
=51	=51	=51	=51	=51	=51	=51	=51
!	!	!	!	!	!	!LO:TUP:b:problem:klamra łukowa, łuczek zamiast numeru	!
8G\L	.	4gg 4b 4d/	.	4gg 4b 4d/	.	12BB/L	.
.	.	.	.	.	.	12AA/	.
8G\	.	.	.	.	.	.	.
.	.	.	.	.	.	12GG/J	.
8G\	.	4gg 4b 4d/	.	4bb 4b 4d/	.	4GG/	-ma
8G\J	.	.	.	.	.	.	.
8G\L	.	4r	.	4r	.	4r	.
8G\	.	.	.	.	.	.	.
8G\	.	4b/	.	4gg\	.	8G\	at-
8G\J	.	.	.	.	.	8E\	-que
*Xtremolo	*	*	*	*	*	*	*
!	!	!	!	!	!	!LO:SIC:v:t=przednutka  8D i custos C#	!
!	!	!	!	!	!	!LO:LB:g=original	!
=52	=52	=52	=52	=52	=52	=52	=52
.	.	.	.	.	.	8qqD/	.
8G\L	+4r 2	4ee\	.	(4cc#X\	.	4C#X/	Sem-
8G\	.	.	.	.	.	.	.
8F\	6	4a/	.	4dd\)	.	2D/	.
8F\J	.	.	.	.	.	.	.
*tremolo	*	*	*	*	*	*	*
8F\L	.	4r	.	4r	.	.	.
8F\	.	.	.	.	.	.	.
8F\	.	4a/	.	4ff\	.	8F\L	-per
8F\J	.	.	.	.	.	8D\J	.
*Xtremolo	*	*	*	*	*	*	*
=53	=53	=53	=53	=53	=53	=53	=53
8F\L	+4r 2	4dd\	.	(4b\	.	4BB/	Vir-
8F\	.	.	.	.	.	.	.
8E\	6	4g/	.	4ccn\)	.	4Cn/	-go
8E\J	.	.	.	.	.	.	.
*tremolo	*	*	*	*	*	*	*
8E\L	.	4r	.	4r	.	4r	.
8E\	.	.	.	.	.	.	.
8E\	.	4cc\	.	4gg\	.	8GG/	fe-
8E\J	.	.	.	.	.	8GG/	-lix
*Xtremolo	*	*	*	*	*	*	*
=54	=54	=54	=54	=54	=54	=54	=54
!	!	!	!	!	!	!LO:TX:t=P:problem:mixed beam	!
8F\L	.	16ff\LL	.	16aa\LL	.	8AA/L	coe-
.	.	16ff\	.	16aa\	.	.	.
8F\	.	16aa\	.	16ccc\	.	8A\J	.
.	.	16aa\JJ	.	16ccc\JJ	.	.	.
8F\	.	16gg\LL	.	16bb\LL	.	8G\L	-li
.	.	16gg\	.	16bb\	.	.	.
8F\J	.	16ff\	.	16aa\	.	8F\J	.
.	.	16ff\JJ	.	16aa\JJ	.	.	.
*tremolo	*	*	*	*	*	*	*
8G\L	6 4	16ee\LL	.	16gg\LL	.	8E/L	por-
.	.	16ee\	.	16gg\	.	.	.
8G\	.	16dd\	.	16ff\	.	8D/J	.
.	.	16dd\JJ	.	16ff\JJ	.	.	.
8G\	5 3	16cc\LL	.	16ee\LL	.	8C/L	.
.	.	16cc\	.	16ee\	.	.	.
8G\J	.	16b\	.	16dd\	.	8BB/J	.
.	.	16b\JJ	.	16dd\JJ	.	.	.
*Xtremolo	*	*	*	*	*	*	*
!LO:SIC:v:t=custos C	!	!	!	!	!	!	!
!LO:LB:g=original	!	!	!	!	!	!	!
=55	=55	=55	=55	=55	=55	=55	=55
!	!	!	!LO:DY:t=for&colon;	!	!LO:DY:t=for.	!	!
8C/L	.	16cc/LL	f	8cc\L	f	4C/	-ta
.	.	16g/	.	.	.	.	.
8GG/	.	16g/	.	8g\	.	.	.
.	.	16g/JJ	.	.	.	.	.
*	*	*tremolo	*	*	*	*	*
8C/	.	16g/LL	.	8cc\	.	4r	.
.	.	16g/	.	.	.	.	.
8E/J	.	16g/	.	8ee\J	.	.	.
.	.	16g/JJ	.	.	.	.	.
8D/L	6_	16g/LL	.	8dd\L	.	2r	.
.	.	16g/	.	.	.	.	.
8GG/	.	16g/	.	8g\	.	.	.
.	.	16g/JJ	.	.	.	.	.
8BB/	.	16g/LL	.	8dd\	.	.	.
.	.	16g/	.	.	.	.	.
8D/J	.	16g/	.	8ff\J	.	.	.
.	X	16g/JJ	.	.	.	.	.
*	*	*Xtremolo	*	*	*	*	*
=56	=56	=56	=56	=56	=56	=56	=56
!	!	!	!	!	!LO:DY:t=p	!	!
4C/	.	8g/L	.	8ee\L	p	8E\L	A-
.	.	8g/J	.	8cc\	.	8C\J	.
4c\	.	8cc\L	.	8ee\	.	8E\L	-ve
.	.	8ee\J	.	8gg\J	.	8G\J	.
.	.	8qqee/	.	8qqgg/	.	8qqG/	.
4F\	6	4dd\	.	4ff\	.	4F\	Ma-
4G\	.	8cc\L	.	8ee\L	.	8E\L	-ris
.	.	8b\J	.	8dd\J	.	8D\J	.
=57	=57	=57	=57	=57	=57	=57	=57
!	!	!LO:TX:t=P:problem:takty 57-58 zapisane repetycją, adnotacja "bis."	!	!LO:TX:t=P:problem:takty 57-58 zapisane repetycją, adnotacja "bis."	!	!	!
.	.	.	.	.	.	8qqD/	.
!	!	!	!	!	!LO:DY:t=for.	!	!
8C/L	.	16cc/LLyy	.	8cc\Lyy	f	8C/L	Stel-
.	.	16g/yy	.	.	.	.	.
8GG/	.	16g/yy	.	8g\yy	.	8BB/J	.
.	.	16g/JJyy	.	.	.	.	.
*	*	*tremolo	*	*	*	*	*
8C/	.	16g/yyLL	.	8cc\yy	.	4C/	-la
.	.	16g/yy	.	.	.	.	.
8E/J	.	16g/yy	.	8ee\Jyy	.	.	.
.	.	16g/yyJJ	.	.	.	.	.
8D/L	6_	16g/yyLL	.	8dd\Lyy	.	2r	.
.	.	16g/yy	.	.	.	.	.
8GG/	.	16g/yy	.	8g\yy	.	.	.
.	.	16g/yyJJ	.	.	.	.	.
8BB/	.	16g/yyLL	.	8dd\yy	.	.	.
.	.	16g/yy	.	.	.	.	.
8D/J	.	16g/yy	.	8ff\Jyy	.	.	.
.	X	16g/yyJJ	.	.	.	.	.
*	*	*Xtremolo	*	*	*	*	*
=58	=58	=58	=58	=58	=58	=58	=58
!	!	!	!	!	!LO:DY:t=p	!	!
4C/	.	8g/Lyy	.	8ee\Lyy	p	8E\L	De-
.	.	8g/Jyy	.	8cc\yy	.	8C\J	.
4c\	.	8cc\Lyy	.	8ee\yy	.	8E\L	-i
.	.	8ee\Jyy	.	8gg\Jyy	.	8G\J	.
.	.	8qqee/yy	.	8qqgg/yy	.	8qqG/	.
4F\	6	4dd\yy	.	4ff\yy	.	4F\	Ma-
4G\	.	8cc\Lyy	.	8ee\Lyy	.	8E\L	-ter
.	.	8b\Jyy	.	8dd\Jyy	.	8D\J	.
=59	=59	=59	=59	=59	=59	=59	=59
.	.	.	.	.	.	8qqD/	.
8C/L	.	16cc/LL	p	8cc\L	.	8C/L	al-
.	.	16g/	.	.	.	.	.
8GG/	.	16g/	.	8g\	.	8BB/J	.
.	.	16g/JJ	.	.	.	.	.
*	*	*tremolo	*	*	*	*	*
8C/	.	16g/LL	.	8cc\	.	4C/	-ma
.	.	16g/	.	.	.	.	.
8E/J	.	16g/	.	8ee\J	.	.	.
.	.	16g/JJ	.	.	.	.	.
8D/L	6	16g/LL	.	8dd\L	.	2r	.
.	.	16g/	.	.	.	.	.
8GG/	.	16g/	.	8g\	.	.	.
.	.	16g/JJ	.	.	.	.	.
8BB/	.	16g/LL	.	8dd\	.	.	.
.	.	16g/	.	.	.	.	.
8D/J	.	16g/	.	8ff\J	.	.	.
.	.	16g/JJ	.	.	.	.	.
!	!	!	!	!	!	!LO:SIC:v:t=custos E	!
!	!	!	!	!	!	!LO:LB:g=original	!
=60	=60	=60	=60	=60	=60	=60	=60
!LO:TX:t=P:problem:mixed beam	!	!	!	!	!LO:DY:t=f&colon;	!	!
8C/L	.	16gg\LL	.	16ee\LL	f	4.E\	at-
.	.	16gg\	.	16ee\	.	.	.
8c\	.	16gg\	.	16ee\	.	.	.
.	.	16gg\JJ	.	16ee\JJ	p	.	.
*	*	*	*	*tremolo	*	*	*
8c\	.	16gg\LL	.	16ee\LL	.	.	.
.	.	16gg\	.	16ee\	.	.	.
8c\J	.	16gg\	.	16ee\	.	8E\	-que
.	.	16gg\JJ	.	16ee\JJ	.	.	.
!	!	!	!	!	!	!LO:SIC:v:s=4B-	!
8B-X\L	2	16gg\LL	.	16ee\LL	.	(8B\L	Sem-
.	.	16gg\	.	16ee\	.	.	.
8B-\	.	16gg\	.	16ee\	.	8G\J)	.
.	.	16gg\JJ	.	16ee\JJ	.	.	.
8B-\	.	16gg\LL	.	16ee\LL	.	8G\L	-per
.	.	16gg\	.	16ee\	.	.	.
8B-\J	.	16gg\	.	16ee\	.	8E\J	.
.	.	16gg\JJ	.	16ee\JJ	.	.	.
*	*	*Xtremolo	*	*Xtremolo	*	*	*
!	!	!LO:SIC:v:t=custos cc	!	!LO:SIC:v:t=custos ff	!	!	!
!	!	!LO:LB:g=original	!	!LO:LB:g=original	!	!	!
=61	=61	=61	=61	=61	=61	=61	=61
!	!	!	!	!	!LO:DY:t=f&colon;	!	!
8A\L	6	16cc\LL	.	16ff\LL	f	8F/L	vir-
.	.	16cc\	.	16ff\	.	.	.
8A\	.	16cc\	.	16ff\	.	8C/J	.
.	.	16cc\JJ	.	16ff\JJ	p	.	.
*	*	*tremolo	*	*tremolo	*	*	*
8A\	.	16cc\LL	.	16ff\LL	.	4C/	-go
.	.	16cc\	.	16ff\	.	.	.
8A\J	.	16cc\	.	16ff\	.	.	.
.	.	16cc\JJ	.	16ff\JJ	.	.	.
*tremolo	*	*	*	*	*	*	*
8A\L	.	16cc\LL	.	16ff\LL	.	2r	.
.	.	16cc\	.	16ff\	.	.	.
8A\	.	16cc\	.	16ff\	.	.	.
.	.	16cc\JJ	.	16ff\JJ	.	.	.
8A\	.	16cc\LL	.	16ff\LL	.	.	.
.	.	16cc\	.	16ff\	.	.	.
8A\J	.	16cc\	.	16ff\	.	.	.
.	.	16cc\JJ	.	16ff\JJ	.	.	.
=62	=62	=62	=62	=62	=62	=62	=62
8A-X\L	6\	16ccc\LL	.	16ff#X\LL	.	4.F#X\	fe-
.	.	16ccc\	.	16ff#X\	.	.	.
8A-X\	.	16ccc\	.	16ff#X\	.	.	.
.	.	16ccc\JJ	.	16ff#X\JJ	.	.	.
8A-X\	.	16ccc\LL	.	16ff#\LL	.	.	.
.	.	16ccc\	.	16ff#\	.	.	.
8A-X\J	.	16ccc\	.	16ff#\	.	8F#\	-lix
.	.	16ccc\JJ	.	16ff#\JJ	.	.	.
8A-\L	.	16ccc\LL	.	16ff#\LL	.	8c\L	coe-
.	.	16ccc\	.	16ff#\	.	.	.
8A-\	.	16ccc\	.	16ff#\	.	8A-X\J	.
.	.	16ccc\JJ	.	16ff#\JJ	.	.	.
8A-\	.	16ccc\LL	.	16ff#\LL	.	8A-\L	-li
.	.	16ccc\	.	16ff#\	.	.	.
8A-\J	.	16ccc\	.	16ff#\	.	8F#X\J	.
.	.	16ccc\JJ	.	16ff#\JJ	.	.	.
*	*	*	*	*Xtremolo	*	*	*
=63	=63	=63	=63	=63	=63	=63	=63
8G\L	3_	4bb 4dd 4d/	.	4gg 4b 4d/	.	4G\	por-
8D\	.	.	.	.	.	.	.
8BB\	.	4bb 4dd 4d/	.	4bb 4b 4d/	.	4GG/	-ta
8GG\J	.	.	.	.	.	.	.
4G\	X	4bb 4dd 4d/	.	4gg 4b 4d/	.	2r	.
4r	.	4r	.	4r	.	.	.
=64	=64	=64	=64	=64	=64	=64	=64
!LO:TX:a:t=1.	!	!	!	!	!	!	!
1r	.	(8g/L	.	(8g/L	.	8GG/L	at-
.	.	8a/	.	8a/	.	8AAn/J	.
.	.	8b/	.	8b/)	.	8BB/L	-que
.	.	8cc/J)	.	8cc/J	.	8C/J	.
.	.	(8dd\L	.	(8dd\L	.	8D\L	Sem-
.	.	8ee\	.	8ee\	.	8E\J	.
.	.	8ffn\	.	8ffn\	.	8Fn\L	-per
.	.	8gg\J)	.	8gg\J)	.	8G\J	.
=65	=65	=65	=65	=65	=65	=65	=65
*	*	*^	*	*	*	*	*
*	*	*	*	*	*tremolo	*	*	*
!	!	!	!	!	!	!LO:DY:t=f&colon;	!	!
8BB/L	7 5_	16ff/LL	16dd\LL	.	16aa\LL	f	(8A\L	Vir-
.	.	16ff/	16dd\	.	16aa\	.	.	.
8BB/	.	16ff/	16dd\	.	16aa\	.	8F\J)	.
.	.	16ff/JJ	16dd\JJ	.	16aa\JJ	.	.	.
8BB/	.	16ff/LL	16dd\LL	.	16aa\LL	.	4F\	-go
.	.	16ff/	16dd\	.	16aa\	.	.	.
8BB/J	.	16ff/	16dd\	.	16aa\	.	.	.
.	.	16ff/JJ	16dd\JJ	.	16aa\JJ	.	.	.
8BB/L	x 5	16ff/LL	16dd\LL	.	16aa\LL	.	4r	.
.	.	16ff/	16dd\	.	16aa\	.	.	.
8BB/	.	16ff/	16dd\	.	16aa\	.	.	.
.	.	16ff/JJ	16dd\JJ	.	16aa\JJ	.	.	.
8BB/	.	16ff/LL	16dd\LL	.	16ff\LL	.	8F\	fe-
.	.	16ff/	16dd\	.	16ff\	.	.	.
8BB/J	.	16ff/	16dd\	.	16ff\	.	8F\	-lix
.	.	16ff/JJ	16dd\JJ	.	16ff\JJ	.	.	.
*Xtremolo	*	*	*	*	*Xtremolo	*	*	*
*	*	*v	*v	*	*	*	*	*
=66	=66	=66	=66	=66	=66	=66	=66
4C/	.	8ee\L	.	8ee\L	p	8E\L	coe-
.	.	8ee\	.	8gg\	.	8C\J	.
4F\	.	8ff\	.	8aa\	.	8A\L	-li
.	.	8aa\J	.	8ff\J	.	8F\J	.
4G\	6 4	8gg\L	.	8ee\L	.	8E\L	por-
.	.	8ff\	.	8dd\	.	8D\J	.
4GG/	x 3	8ee\	.	8cc\	.	8C/L	.
.	.	8dd\J	.	8b\J	.	8BB/J	.
!	!	!	!	!	!	!LO:SIC:v:t=custos C	!
!	!	!	!	!	!	!LO:LB:g=original	!
=67	=67	=67	=67	=67	=67	=67	=67
!LO:TX:t=P:problem:mixed beam	!	!	!LO:DY:t=f&colon;	!	!	!	!
8C/L	.	8cc\L	f	8cc\L	.	4C/	-ta
8c\	.	16dd\L	.	16dd\L	.	.	.
.	.	16ee\JJ	.	16ee\JJ	.	.	.
8G\	.	16ff\LL	.	16ff\LL	.	4r	.
.	.	16gg\	.	16gg\	.	.	.
8E\J	.	16aa\	.	16aa\	.	.	.
.	.	16bb\JJ	.	16bb\JJ	.	.	.
4C/	.	4ccc\	.	4ccc\	.	2r	.
4r	.	4r	.	8r	.	.	.
!	!	!LO:TX:b:i:t=Citiſsimé Verté	!	!	!	!	!
.	.	.	.	8g/	.	.	.
!	!	!LO:PB:g=original	!	!	!	!	!
=68	=68	=68	=68	=68	=68	=68	=68
!LO:TX:a:t=1.	!	!	!	!	!	!	!
1r	.	8g/L	p	8g/L	.	8GG/L	at-
.	.	(8a/	.	(8a/	.	8AA/J	.
.	.	8b/	.	8b/	.	8BB/L	-que
.	.	8cc/J)	.	8cc/J)	.	8C/J	.
.	.	(8dd\L	.	(8dd\L	.	8D\L	Sem-
.	.	8ee\	.	8ee\	.	8E\J	.
.	.	8ff\	.	8ff\)	.	8F\L	-per
.	.	8gg\J)	.	8gg\J	.	8G\J	.
!LO:TX:b:i:t=Citiſsime Verte	!	!	!	!LO:SIC:v:t=custos aa	!	!	!
!LO:PB:g=original	!	!	!	!LO:LB:g=original	!	!	!
=69	=69	=69	=69	=69	=69	=69	=69
*	*	*^	*	*	*	*	*
8BB/L	7 5_	16ff/LL	16dd\LL	.	16aa\LL	.	8A\L	vir-
.	.	16ff/	16dd\	.	16aa\	.	.	.
8BB/	.	16ff/	16dd\	.	16aa\	.	8F\J	.
.	.	16ff/JJ	16dd\JJ	.	16aa\JJ	.	.	.
*	*	*	*	*	*tremolo	*	*	*
8BB/	.	16ff/LL	16dd\LL	.	16aa\LL	.	4F\	-go
.	.	16ff/	16dd\	.	16aa\	.	.	.
8BB/J	.	16ff/	16dd\	.	16aa\	.	.	.
.	.	16ff/JJ	16dd\JJ	.	16aa\JJ	.	.	.
8BB/L	.	16ff/LL	16dd\LL	.	16aa\LL	.	4r	.
.	.	16ff/	16dd\	.	16aa\	.	.	.
8BB/	.	16ff/	16dd\	.	16aa\	.	.	.
.	.	16ff/JJ	16dd\JJ	.	16aa\JJ	.	.	.
8BB/	x 5	16ff/LL	16dd\LL	.	16ff\LL	.	8F\	fe-
.	.	16ff/	16dd\	.	16ff\	.	.	.
8BB/J	.	16ff/	16dd\	.	16ff\	.	8F\	-lix
.	.	16ff/JJ	16dd\JJ	.	16ff\JJ	.	.	.
*	*	*	*	*	*Xtremolo	*	*	*
*	*	*v	*v	*	*	*	*	*
=70	=70	=70	=70	=70	=70	=70	=70
4C/	.	8ee\L	.	8ee\L	.	8E/L	coe-
.	.	8ee\	.	8gg\	.	8C/J	.
4F\	.	8ff\	.	8aa\	.	8A\L	-li
.	.	8aa\J	.	8ff\J	.	8F\J	.
4G\	6 4	8gg\L	.	8ee\L	.	8E/L	por-
.	.	8ff\	.	8dd\	.	8D/J	.
4GG/	5 3	8ee\	.	8cc\	.	8C/L	-ta
.	.	8dd\J	.	8b\J	.	8BB/J	.
=71	=71	=71	=71	=71	=71	=71	=71
!	!	!	!	!LO:TX:a:B:t==pris_	!	!	!
.	.	.	.	8qqbb/	.	.	.
8C/L	.	16ee\LL	.	16ccc\LL	.	4C/	fe-
.	.	16ee\	.	16bb\J	.	.	.
8C/	.	16ee\	.	8ccc\J	.	.	.
.	.	16ee\JJ	.	.	.	.	.
.	.	.	.	8qqddd/	.	.	.
8E/	6	16gg\LL	.	16ccc\LL	.	4G\	-lix
.	.	16gg\	.	16bb\J	.	.	.
8E/J	.	16gg\	.	8ccc\J	.	.	.
.	.	16gg\JJ	.	.	.	.	.
.	.	.	.	8qqbb/	.	.	.
8F\L	.	16aa\LL	.	16ccc\LL	.	4A\	coe-
.	.	16aa\	.	16bb\J	.	.	.
8F\	.	16aa\	.	8ccc\J	.	.	.
.	.	16aa\JJ	.	.	.	.	.
.	.	.	.	8qqddd/	.	8qqG/	.
8A\	6	16ff\LL	.	16ccc\LL	.	4F\	-li
.	.	16ff\	.	16bb\J	.	.	.
8A\J	.	16ff\	.	8ccc\J	.	.	.
.	.	16ff\JJ	.	.	.	.	.
=72	=72	=72	=72	=72	=72	=72	=72
*	*	*^	*	*	*	*	*
*	*	*	*	*	*	*	*2\right	*
8G\L	6 4	16ee/LL	16cc\LL	.	16ee\LL	.	2E\	por-
.	.	16ee/	16cc\	.	16ccc\	.	.	.
8G\	.	16ee/	16cc\	.	16ee\	.	.	.
.	.	16ee/JJ	16cc\JJ	.	16ccc\JJ	.	.	.
8G\	.	16ee/LL	16cc\LL	.	16ee\LL	.	.	.
.	.	16ee/	16cc\	.	16ccc\	.	.	.
8G\J	.	16ee/	16cc\	.	16ee\	.	.	.
.	.	16ee/JJ	16cc\JJ	.	16ccc\JJ	.	.	.
8GG/L	x 3	16gg/LL	16b\LL	.	16dd\LL	.	2D/	-ta
.	.	16gg/	16b\	.	16bb\	.	.	.
8GG/	.	16gg/	16b\	.	16dd\	.	.	.
.	.	16gg/JJ	16b\JJ	.	16bb\JJ	.	.	.
8GG/	.	16gg/LL	16b\LL	.	16dd\LL	.	.	.
.	.	16gg/	16b\	.	16bb\	.	.	.
8GG/J	.	16gg/	16b\	.	16dd\	.	.	.
.	.	16gg/JJ	16b\JJ	.	16bb\JJ	.	.	.
*	*	*v	*v	*	*	*	*	*
=73	=73	=73	=73	=73	=73	=73	=73
!	!	!	!	!LO:TX:t=P:problem:takty 73-74 zapisane repetycją, dodatkowa oznaczona "Re=" na końcu t. 72 i "=pris" na początku t. 71	!	!	!
.	.	.	.	8qqbb/yy	.	.	.
8C/L	.	16ee\LL	.	16ccc\LLyy	.	4C/	fe-
.	.	16ee\	.	16bb\Jyy	.	.	.
8C/	.	16ee\	.	8ccc\Jyy	.	.	.
.	.	16ee\JJ	.	.	.	.	.
.	.	.	.	8qqddd/yy	.	.	.
8E/	6	16gg\LL	.	16ccc\LLyy	.	4G\	-lix
.	.	16gg\	.	16bb\Jyy	.	.	.
8E/J	.	16gg\	.	8ccc\Jyy	.	.	.
.	.	16gg\JJ	.	.	.	.	.
.	.	.	.	8qqbb/yy	.	.	.
8F\L	5	16aa\LL	.	16ccc\LLyy	.	4A\	coe-
.	.	16aa\	.	16bb\Jyy	.	.	.
8F\	.	16aa\	.	8ccc\Jyy	.	.	.
.	.	16aa\JJ	.	.	.	.	.
.	.	.	.	8qqddd/yy	.	.	.
8A\	.	16ff\LL	.	16ccc\LLyy	.	8G\L	-li
.	.	16ff\	.	16bb\Jyy	.	.	.
8A\J	.	16ff\	.	8ccc\Jyy	.	8F\J	.
.	.	16ff\JJ	.	.	.	.	.
=74	=74	=74	=74	=74	=74	=74	=74
*	*	*^	*	*	*	*	*
8G\L	6 4	16ee/LL	16cc\LL	.	16ee\LLyy	.	2E\	por-
.	.	16ee/	16cc\	.	16ccc\yy	.	.	.
8G\	.	16ee/	16cc\	.	16ee\yy	.	.	.
.	.	16ee/JJ	16cc\JJ	.	16ccc\JJyy	.	.	.
8G\	.	16ee/LL	16cc\LL	.	16ee\LLyy	.	.	.
.	.	16ee/	16cc\	.	16ccc\yy	.	.	.
8G\J	.	16ee/	16cc\	.	16ee\yy	.	.	.
.	.	16ee/JJ	16cc\JJ	.	16ccc\JJyy	.	.	.
8GG/L	5 3	16gg/LL	16b\LL	.	16dd\LLyy	.	2DT\	.
.	.	16gg/	16b\	.	16bb\yy	.	.	.
8GG/	.	16gg/	16b\	.	16dd\yy	.	.	.
.	.	16gg/JJ	16b\JJ	.	16bb\JJyy	.	.	.
8GG/	.	16gg/LL	16b\LL	.	16dd\LLyy	.	.	.
.	.	16gg/	16b\	.	16bb\yy	.	.	.
8GG/J	.	16gg/	16b\	.	16dd\yy	.	.	.
!	!	!	!	!	!LO:TX:b:t=Re=	!	!	!
.	.	16gg/JJ	16b\JJ	.	16bb\JJyy	.	.	.
=75	=75	=75	=75	=75	=75	=75	=75	=75
!	!	!	!	!LO:DY:t=for.	!	!	!	!
4C/	.	4ee/	4cc\	f	4ccc\	.	4C/	-ta
4E\	6	8cc\L	4ryy	.	8cc\L	.	4r	.
.	.	8ee\J	.	.	8ee\J	.	.	.
.	.	8qqee/	.	.	8qqee/	.	.	.
4F\	6	4dd\	2ryy	.	4dd\	.	2r	.
4G\	.	8cc\L	.	.	8cc\L	.	.	.
.	.	8b\J	.	.	8b\J	.	.	.
*	*	*v	*v	*	*	*	*	*
!	!	!	!	!	!	!LO:LB:g=original	!
=76	=76	=76	=76	=76	=76	=76	=76
!	!	!	!	!	!	!LO:TX:b:t=9.	!
8C/L	.	16cc/LL	.	8cc\L	.	00r	.
.	.	16g/	.	.	.	.	.
8GG/	.	16g/	.	8g\	.	.	.
.	.	16g/JJ	.	.	.	.	.
8C/	.	16g/LL	.	8cc\	.	.	.
.	.	16g/	.	.	.	.	.
8E/J	.	16g/	.	8ee\J	.	.	.
.	.	16g/JJ	.	.	.	.	.
8D/L	.	16g/LL	.	8dd\L	.	.	.
.	.	16g/	.	.	.	.	.
8GG/	.	16g/	.	8g\	.	.	.
.	.	16g/JJ	.	.	.	.	.
8BB/	.	16g/LL	.	8dd\	.	.	.
.	.	16g/	.	.	.	.	.
8D/J	.	16g/	.	8ff\J	.	.	.
.	.	16g/JJ	.	.	.	.	.
*	*	*Xtremolo	*	*	*	*	*
!LO:SIC:v:t=custos C	!	!LO:SIC:v:t=custos g	!	!	!	!	!
!LO:LB:g=original	!	!LO:LB:g=original	!	!	!	!	!
=77	=77	=77	=77	=77	=77	=77	=77
4C/	.	8g/L	.	8ee\L	.	.	.
.	.	8g/J	.	8cc\	.	.	.
4c\	.	8cc\L	.	8ee\	.	.	.
.	.	8ee\J	.	8gg\J	.	.	.
.	.	8qqee/	.	4qqgg/	.	.	.
4F\	.	4dd\	.	4ff\	.	.	.
4G\	.	8cc\L	.	8ee\L	.	.	.
.	.	8b\J	.	8dd\J	.	.	.
=78	=78	=78	=78	=78	=78	=78	=78
!	!	!	!	!LO:TX:t=P:problem:takty 78-79 zapisane repetycją, adnotacja "bis."	!	!	!
8C/L	.	16cc/LL	.	8cc\Lyy	.	.	.
.	.	16g/	.	.	.	.	.
8GG/	.	16g/	.	8g\yy	.	.	.
.	.	16g/JJ	.	.	.	.	.
*	*	*tremolo	*	*	*	*	*
8C/	.	16g/LL	.	8cc\yy	.	.	.
.	.	16g/	.	.	.	.	.
8E/J	.	16g/	.	8ee\Jyy	.	.	.
.	.	16g/JJ	.	.	.	.	.
8D/L	6	16g/LL	.	8dd\Lyy	.	.	.
.	.	16g/	.	.	.	.	.
8GG/	.	16g/	.	8g\yy	.	.	.
.	.	16g/JJ	.	.	.	.	.
8BB/	.	16g/LL	.	8dd\yy	.	.	.
.	.	16g/	.	.	.	.	.
8D/J	.	16g/	.	8ff\Jyy	.	.	.
.	.	16g/JJ	.	.	.	.	.
*	*	*Xtremolo	*	*	*	*	*
=79	=79	=79	=79	=79	=79	=79	=79
4C/	.	8g/L	.	8ee\Lyy	.	.	.
.	.	8g/J	.	8cc\yy	.	.	.
4c\	.	8cc\L	.	8ee\yy	.	.	.
.	.	8ee\J	.	8gg\Jyy	.	.	.
.	.	8qqee/	.	4qqgg/yy	.	.	.
4F\	.	4dd\	.	4ff\yy	.	.	.
4G\	.	8cc\L	.	8ee\Lyy	.	.	.
!LO:TX:t=[segno]:problem:znak segno na kresce	!	!	!	!	!	!	!
!LO:TX:b:i:t=Dal Segno	!	!	!	!	!	!	!
.	.	8b\J	.	8dd\Jyy	.	.	.
!	!	!	!	!LO:LB:g=original	!	!	!
=80	=80	=80	=80	=80	=80	=80	=80
*	*	*tremolo	*	*	*	*	*
8C\Lyy	.	16cc\LL	.	4ee\	.	00r	.
.	.	16cc\	.	.	.	.	.
8C\yy	.	16cc\	.	.	.	.	.
.	.	16cc\JJ	.	.	.	.	.
8E\yy	6	16cc\LL	.	4ccc\	.	.	.
.	.	16cc\	.	.	.	.	.
8E\Jyy	.	16cc\	.	.	.	.	.
.	.	16cc\JJ	.	.	.	.	.
.	.	.	.	16qqbb/	.	.	.
8F\Lyy	.	16cc\LL	.	4aa\	.	.	.
.	.	16cc\	.	.	.	.	.
8F\yy	.	16cc\	.	.	.	.	.
.	.	16cc\JJ	.	.	.	.	.
.	.	.	.	8qqgg/	.	.	.
8A\yy	6	16cc\LL	.	4ff\	.	.	.
.	.	16cc\	.	.	.	.	.
8A\Jyy	.	16cc\	.	.	.	.	.
.	.	16cc\JJ	.	.	.	.	.
=81	=81	=81	=81	=81	=81	=81	=81
*tremolo	*	*	*	*	*	*	*
8G\yyL	6 4	16cc\LL	.	4.ee\	.	.	.
.	.	16cc\	.	.	.	.	.
8G\yy	.	16cc\	.	.	.	.	.
.	.	16cc\JJ	.	.	.	.	.
8G\yy	.	16cc\LL	.	.	.	.	.
.	.	16cc\	.	.	.	.	.
8G\yyJ	3	16cc\	.	(16dd\LL	.	.	.
.	.	16cc\JJ	.	16cc\JJ)	.	.	.
8GG/yyL	.	16b/LL	.	2ddT\	.	.	.
.	.	16b/	.	.	.	.	.
8GG/yy	.	16b/	.	.	.	.	.
.	.	16b/JJ	.	.	.	.	.
8GG/yy	.	16b/LL	.	.	.	.	.
.	.	16b/	.	.	.	.	.
8GG/yyJ	.	16b/	.	.	.	.	.
.	.	16b/JJ	.	.	.	.	.
*Xtremolo	*	*	*	*	*	*	*
=82	=82	=82	=82	=82	=82	=82	=82
!	!	!	!LO:DY:t=pia	!	!	!	!
8C\Lyy	.	16cc\LL	p	4ee\	.	.	.
.	.	16cc\	.	.	.	.	.
8C\yy	.	16cc\	.	.	.	.	.
.	.	16cc\JJ	.	.	.	.	.
8E\yy	6	16cc\LL	.	4ccc\	.	.	.
.	.	16cc\	.	.	.	.	.
8E\Jyy	.	16cc\	.	.	.	.	.
.	.	16cc\JJ	.	.	.	.	.
.	.	.	.	16qqbb/	.	.	.
8F\Lyy	.	16cc\LL	.	4aa\	.	.	.
.	.	16cc\	.	.	.	.	.
8F\yy	6	16cc\	.	.	.	.	.
.	.	16cc\JJ	.	.	.	.	.
.	.	.	.	8qqgg/	.	.	.
8A\yy	.	16cc\LL	.	4ff\	.	.	.
.	.	16cc\	.	.	.	.	.
8A\Jyy	.	16cc\	.	.	.	.	.
.	.	16cc\JJ	.	.	.	.	.
=83	=83	=83	=83	=83	=83	=83	=83
*tremolo	*	*	*	*	*	*	*
8G\Lyy	6 4	16cc\LL	.	4.ee\	.	.	.
.	.	16cc\	.	.	.	.	.
8G\yy	.	16cc\	.	.	.	.	.
.	.	16cc\JJ	.	.	.	.	.
8G\yy	.	16cc\LL	.	.	.	.	.
.	.	16cc\	.	.	.	.	.
8G\Jyy	.	16cc\	.	16dd\LL	.	.	.
.	.	16cc\JJ	.	16cc\JJ	.	.	.
8GG/yyL	5 3	16b/LL	.	2ddT\	.	.	.
.	.	16b/	.	.	.	.	.
8GG/yy	.	16b/	.	.	.	.	.
.	.	16b/JJ	.	.	.	.	.
8GG/yy	.	16b/LL	.	.	.	.	.
.	.	16b/	.	.	.	.	.
8GG/yyJ	.	16b/	.	.	.	.	.
.	.	16b/JJ	.	.	.	.	.
*Xtremolo	*	*Xtremolo	*	*	*	*	*
=84	=84	=84	=84	=84	=84	=84	=84
!	!	!LO:TX:t=P:problem:mixed beam	!	!LO:TX:t=P:problem:mixed beam	!	!	!
8CC/Lyy	3_	8cc\L	f	8cc\L	.	1r;	.
8C/yy	.	8c/	.	8c/	.	.	.
8E/yy	.	8e/	.	8e/	.	.	.
8G/Jyy	X	8g/J	.	8g/J	.	.	.
8E\Lyy	.	8cc\L	.	8cc\L	.	.	.
8C\yy	.	8ee\	.	8ee\	.	.	.
8E\yy	.	8gg\	.	8gg\	.	.	.
!	!	!	!	!	!	!LO:TX:b:i:t=Sieque. Pastorella Secunda &colon;|	!
8G\Jyy	.	8ccc\J	.	8ccc\J	.	.	.
=85	=85	=85	=85	=85	=85	=85	=85
!	!	!	!	!	!	!LO:TX:t=P:problem:brak taktu	!
4C/yy	.	4cc 4e 4G/	.	4cc 4e 4G/	.	1ryy	.
4C/yy	.	4cc 4e 4G/	.	4cc 4e 4G/	.	.	.
4C/yy	.	4cc 4e 4G/	.	4cc 4e 4G/	.	.	.
!LO:TX:b:t=finis	!	!	!	!	!	!	!
4r;;yy	.	4r	.	4r	.	.	.
==	==	==	==	==	==	==	==
*-	*-	*-	*-	*-	*-	*-	*-
!!!system-decoration: s1[g1]s4
!!!RDF**dynam: p = "p:"
!!!RDF**dynam: f = "for"
!!!ENC:Andrzej Borzym
!!!END:2020-11-25
!!!ENC: Marta Lawrence
!!!END: 2021-01-09
